X:1
T:Sweet Nelson
M:3/4
L:1/4
K:C
 G/2G/2| G e e| d B G| A B A| G2 G/2G/2| G e e| d B G| d A B| G2 G|\
 G e e| d B G/2G/2| d A B| G2 G/2G/2| G G G| g2 e/2e/2| d A B| G2||\
